src/assets/media/icon_select_map.svg

<svg width="19" height="18" viewBox="0 0 19 18" fill="none" xmlns="http://www.w3.org/2000/svg">
    <path d="M7.74768 1.23105C8.09573 1.4461 8.37986 1.77082 8.54482 2.18105L9.84373 5.42142C10.1519 5.15761 10.5276 4.9849 10.9285 4.92266C11.3294 4.86042 11.7397 4.91111 12.1134 5.06905C12.3143 4.85837 12.5553 4.69003 12.8223 4.57396C13.0893 4.45789 13.3769 4.39644 13.668 4.39322C13.9591 4.39 14.2479 4.44508 14.5174 4.55522C14.7869 4.66535 15.0316 4.82832 15.2371 5.03451C15.478 4.93849 15.7354 4.89092 15.9947 4.89452C16.254 4.89813 16.51 4.95284 16.7481 5.05553C16.9862 5.15821 17.2017 5.30685 17.3823 5.49293C17.5628 5.67901 17.7049 5.89889 17.8004 6.13996C18.4075 7.66514 18.8186 9.23523 18.9637 10.7051C19.4422 15.532 15.0843 18.6135 10.9924 16.837C9.85754 16.343 8.98268 15.9897 8.37295 15.7764C8.15327 15.6964 7.92923 15.629 7.70191 15.5743C7.66298 15.565 7.62344 15.5583 7.58359 15.5545C7.62396 15.5558 7.66419 15.5491 7.70191 15.5346C7.5617 15.587 7.40746 15.5879 7.26664 15.5372C7.21057 15.5172 7.14913 15.5184 7.09391 15.5406L6.17068 15.9163C6.0381 15.9701 5.89619 15.9971 5.75314 15.9957C5.61008 15.9944 5.4687 15.9648 5.33713 15.9086C5.20556 15.8524 5.08641 15.7708 4.98654 15.6683C4.88666 15.5659 4.80803 15.4447 4.75518 15.3118C4.61305 14.9573 4.54218 14.5783 4.54663 14.1964C4.55107 13.8145 4.63075 13.4373 4.78109 13.0862C4.92991 12.7372 5.14644 12.4212 5.41817 12.1564C5.68989 11.8917 6.01141 11.6834 6.36414 11.5437C6.71045 11.403 7.08527 11.3451 7.45836 11.3745L7.98605 11.4176L5.06436 4.13114C3.46491 5.03192 2.62459 6.91464 2.62459 9.0841C2.62459 9.80005 2.03732 10.3796 1.31186 10.3796C0.966293 10.3816 0.63403 10.2464 0.388056 10.0037C0.142082 9.76097 0.00251126 9.43053 0 9.08496C0 5.10273 2.23855 1.78551 5.92368 1.10151L5.97205 1.08078C6.34686 0.928779 6.74068 0.899416 7.10946 0.977143C7.15119 0.975377 7.19293 0.973938 7.23468 0.972825H7.35991C7.61123 0.972825 7.847 1.04364 8.04823 1.16542C8.10695 1.19478 7.97655 1.20342 7.74768 1.23105ZM11.5019 15.6469C14.706 17.0382 18.0638 14.6632 17.6838 10.8338C17.5517 9.49346 17.1717 8.03996 16.6077 6.62446C16.5414 6.45527 16.4107 6.3193 16.2442 6.24643C16.0778 6.17356 15.8892 6.16975 15.7199 6.23582C15.6423 6.26913 15.571 6.31559 15.5092 6.37314C15.4361 6.44106 15.3482 6.49097 15.2524 6.51892C15.1567 6.54687 15.0557 6.55208 14.9576 6.53413C14.8595 6.51619 14.7669 6.47558 14.6872 6.41554C14.6076 6.35551 14.543 6.2777 14.4987 6.18832C14.4231 6.03601 14.3059 5.90817 14.1607 5.81955C14.0156 5.73092 13.8483 5.68512 13.6783 5.68742C13.3328 5.6926 13.0202 5.89642 12.8734 6.21251C12.8315 6.3038 12.7688 6.38398 12.6902 6.44656C12.6117 6.50915 12.5195 6.55241 12.4212 6.57283C12.3228 6.59325 12.2211 6.59028 12.1241 6.56414C12.0271 6.53801 11.9377 6.48944 11.8629 6.42237C11.7417 6.31331 11.5931 6.23929 11.4331 6.20825C11.273 6.17722 11.1075 6.19033 10.9544 6.24619C10.8008 6.30266 10.6653 6.39955 10.5623 6.52663C10.4592 6.65371 10.3924 6.80627 10.3688 6.96819C10.273 7.6211 9.38255 7.72819 9.13641 7.11587L7.35214 2.66642C7.31867 2.582 7.26882 2.50504 7.20548 2.43997C7.14213 2.3749 7.06654 2.32301 6.98305 2.28728C6.89956 2.25156 6.80983 2.23271 6.71902 2.23182C6.62821 2.23093 6.53813 2.24802 6.45395 2.2821C6.28388 2.35217 6.1484 2.48664 6.07706 2.65618C6.00572 2.82572 6.00429 3.0166 6.07309 3.18719L9.56823 11.9039C9.60951 12.0058 9.62411 12.1167 9.61063 12.2259C9.59715 12.335 9.55605 12.439 9.49121 12.5279C9.42637 12.6167 9.33993 12.6876 9.24006 12.7338C9.1402 12.7799 9.03021 12.7999 8.9205 12.7917L7.35732 12.6665C7.18005 12.6524 7.00196 12.6802 6.83741 12.7476C6.64249 12.8248 6.46476 12.9398 6.31446 13.0859C6.16416 13.2321 6.04427 13.4065 5.96168 13.5992C5.82091 13.9274 5.795 14.2927 5.88482 14.6356L6.61286 14.3393C6.90663 14.2201 7.23033 14.1956 7.53868 14.2694C8.15618 14.2521 9.27545 14.6796 11.5019 15.6469Z"
          fill="#667085"/>
</svg>

<svg width="19" height="18" fill="none" xmlns="http://www.w3.org/2000/svg">
    <path d="M7.748 1.231c.348.215.632.54.797.95l1.299 3.24a2.183 2.183 0 0 1 2.27-.352 2.181 2.181 0 0 1 3.123-.034A1.972 1.972 0 0 1 17.8 6.14c.607 1.525 1.019 3.095 1.164 4.565.478 4.827-3.88 7.908-7.972 6.132-1.134-.494-2.01-.847-2.62-1.06a6.2 6.2 0 0 0-.67-.203.861.861 0 0 0-.118-.02c.04.002.08-.005.118-.02a.632.632 0 0 1-.435.003.244.244 0 0 0-.173.004l-.923.375a1.082 1.082 0 0 1-1.416-.604 2.906 2.906 0 0 1 .663-3.156 2.87 2.87 0 0 1 .946-.612c.346-.141.721-.199 1.094-.17l.528.044L5.064 4.13c-1.6.9-2.44 2.784-2.44 4.953 0 .716-.587 1.296-1.312 1.296A1.305 1.305 0 0 1 0 9.085c0-3.982 2.239-7.3 5.924-7.983l.048-.021A1.947 1.947 0 0 1 7.109.977a8.01 8.01 0 0 1 .126-.004h.125c.251 0 .487.07.688.192.059.03-.071.038-.3.066zm3.754 14.416c3.204 1.391 6.562-.984 6.182-4.813-.132-1.34-.512-2.794-1.076-4.21a.686.686 0 0 0-.888-.388.734.734 0 0 0-.21.137.641.641 0 0 1-1.011-.185.902.902 0 0 0-1.626.025.64.64 0 0 1-1.01.21.898.898 0 0 0-1.3.104.909.909 0 0 0-.194.441c-.096.653-.986.76-1.233.148l-1.784-4.45a.688.688 0 0 0-1.275-.01.697.697 0 0 0-.004.531l3.495 8.717a.647.647 0 0 1-.647.888l-1.564-.126a1.134 1.134 0 0 0-.52.082 1.59 1.59 0 0 0-.952 1.888l.728-.297a1.52 1.52 0 0 1 .926-.07c.617-.017 1.736.41 3.963 1.378z"
          fill="#667085"/>
</svg>
